brandFactory_export/3.Masa/Prepago_3Masa.svg

<?xml version="1.0" encoding="UTF-8"?>
<svg width="24px" height="24px" viewBox="0 0 24 24" version="1.1" xmlns="http://www.w3.org/2000/svg" xmlns:xlink="http://www.w3.org/1999/xlink">
    <title>3.Masa/Prepago_3Masa</title>
    <g id="Symbols" stroke="none" stroke-width="1" fill="none" fill-rule="evenodd">
        <g id="3.Masa/Prepago_3Masa" fill="#5CB615" fill-rule="nonzero">
            <path d="M18.0857143,2.04281037e-13 C19.4168067,2.04281037e-13 20.3882353,0.322689076 21.0537815,0.991596639 C21.7159664,1.65714286 22.0352941,2.62521008 22.0352941,3.94621849 L22.0352941,3.94621849 L22.0352941,19.6773109 C22.0352941,21.0151261 21.712605,21.989916 21.0436975,22.6521008 C20.3815126,23.307563 19.4134454,23.6268908 18.0857143,23.6268908 L18.0857143,23.6268908 L10.2201681,23.6268908 C8.89243698,23.6268908 7.92436975,23.307563 7.26218487,22.6521008 C6.59663866,21.989916 6.27058824,21.0151261 6.27058824,19.6773109 L6.27058824,19.6773109 L6.27058824,15.4016807 C4.72436975,15.2941176 3.49411765,14.810084 2.61008403,13.9596639 C1.56134454,12.9478992 1.0302521,11.4521008 1.0302521,9.5092437 C1.0302521,7.56638655 1.56134454,6.07058824 2.61008403,5.05882353 C3.49411765,4.20504202 4.72773109,3.72436975 6.27731092,3.61680672 C6.32773109,2.48067227 6.65042017,1.62689076 7.25882353,1.01176471 C7.93445378,0.332773109 8.90252101,2.04281037e-13 10.2201681,2.04281037e-13 L10.2201681,2.04281037e-13 Z M14.1596639,18.1546218 C13.3226891,18.1546218 12.8252101,18.6554622 12.8252101,19.492437 C12.8252101,19.8991597 12.9361345,20.2252101 13.1714286,20.4638655 C13.4067227,20.702521 13.7462185,20.8302521 14.1563025,20.8302521 C14.5663866,20.8302521 14.9058824,20.702521 15.1411765,20.4638655 C15.3697479,20.2252101 15.487395,19.8991597 15.4941176,19.492437 C15.4941176,18.6554622 14.9966387,18.1546218 14.1596639,18.1546218 Z M6.94621849,4.94117647 C5.44033613,4.94117647 4.29411765,5.30756303 3.54453782,6.0302521 C2.76806723,6.77647059 2.37478992,7.94957983 2.37478992,9.51260504 C2.37478992,11.0756303 2.76806723,12.2487395 3.54453782,12.994958 C4.29411765,13.7176471 5.44033613,14.0840336 6.94621849,14.0840336 C8.45210084,14.0840336 9.59831933,13.7176471 10.3478992,12.994958 C11.1243697,12.2487395 11.5176471,11.0756303 11.5176471,9.51260504 C11.5176471,7.94957983 11.1243697,6.77647059 10.3478992,6.0302521 C9.59831933,5.30756303 8.45210084,4.94117647 6.94621849,4.94117647 Z M6.94621849,5.49579832 C7.17815126,5.49579832 7.36638655,5.68403361 7.36638655,5.91596639 L7.36638655,5.91596639 L7.36638655,6.28907563 C7.81344538,6.34285714 8.22689076,6.48067227 8.55966387,6.68571429 C8.80504202,6.83697479 8.84201681,7.03529412 8.84201681,7.1394958 C8.84201681,7.40840336 8.62352941,7.62352941 8.35798319,7.62352941 C8.2605042,7.62016807 8.16302521,7.59327731 8.07563025,7.54621849 L8.07563025,7.54621849 C7.84705882,7.42184874 7.61176471,7.33109244 7.36638655,7.27731092 L7.36638655,7.27731092 L7.36638655,9.02184874 C8.86554622,9.24705882 9.18823529,10.1210084 9.18489982,10.8235294 C9.18489982,11.3983193 8.97310924,11.8857143 8.57647059,12.2285714 C8.27058824,12.4941176 7.85714286,12.6655462 7.36638655,12.7327731 L7.36638655,12.7327731 L7.36638655,13.1260504 C7.36638655,13.3579832 7.17815126,13.5462185 6.94621849,13.5462185 C6.71428571,13.5462185 6.52605042,13.3579832 6.52605042,13.1260504 L6.52605042,13.1260504 L6.52605042,12.7428571 C5.95798319,12.6789916 5.41344538,12.4773109 4.94285714,12.1512605 C4.78823529,12.0436975 4.70756303,11.8957983 4.70756303,11.7142857 C4.71092437,11.4420168 4.93613445,11.2201681 5.20840336,11.2235294 C5.32268908,11.2268908 5.43361345,11.2605042 5.52773109,11.3243697 C5.85714286,11.5462185 6.19327731,11.687395 6.52605042,11.7546218 L6.52605042,11.7546218 L6.52605042,9.9092437 C5.1512605,9.65714286 4.85210084,8.82352941 4.85210084,8.1512605 C4.85210084,7.12941176 5.49747899,6.4302521 6.52605042,6.28907563 L6.52605042,6.28907563 L6.52605042,5.91596639 C6.52605042,5.68403361 6.71428571,5.49579832 6.94621849,5.49579832 Z M7.36638655,10.0403361 L7.36638655,11.7546218 C7.88739496,11.6436975 8.19327731,11.3210084 8.19327731,10.8605042 C8.19327731,10.5277311 8.08571429,10.205042 7.36638655,10.0403361 L7.36638655,10.0403361 Z M6.52605042,7.27058824 C6.09243698,7.37815126 5.84369748,7.67394958 5.84369748,8.10756303 C5.84369748,8.30252101 5.84369748,8.67563025 6.52605042,8.87731092 L6.52605042,8.87731092 Z" id="Prepago_3Masa"></path>
        </g>
    </g>
</svg>

<svg width="24" height="24" viewBox="0 0 24 24" xmlns="http://www.w3.org/2000/svg"><path d="M18.086 0c1.33 0 2.302.323 2.968.992.662.665.981 1.633.981 2.954v15.731c0 1.338-.322 2.313-.991 2.975-.662.656-1.63.975-2.958.975H10.22c-1.328 0-2.296-.32-2.958-.975-.665-.662-.991-1.637-.991-2.975v-4.275c-1.547-.108-2.777-.592-3.66-1.442-1.05-1.012-1.58-2.508-1.58-4.45 0-1.944.53-3.44 1.58-4.451.883-.854 2.117-1.335 3.666-1.442.05-1.136.373-1.99.982-2.605C7.934.332 8.903 0 10.22 0zM14.16 18.155c-.837 0-1.335.5-1.335 1.337 0 .407.111.733.346.972.236.239.575.366.985.366.41 0 .75-.127.985-.366.229-.239.346-.565.353-.972 0-.837-.497-1.337-1.334-1.337zM6.946 4.94c-1.506 0-2.652.367-3.401 1.09-.777.745-1.17 1.919-1.17 3.482 0 1.563.393 2.736 1.17 3.482.75.723 1.895 1.089 3.401 1.089 1.506 0 2.652-.366 3.402-1.089.776-.746 1.17-1.92 1.17-3.482 0-1.563-.394-2.737-1.17-3.483-.75-.722-1.896-1.089-3.402-1.089zm0 .555a.42.42 0 01.42.42v.373c.447.054.86.192 1.194.397.245.151.282.35.282.453a.484.484 0 01-.484.485.646.646 0 01-.282-.078 2.678 2.678 0 00-.71-.269v1.745c1.5.225 1.822 1.099 1.819 1.802 0 .574-.212 1.062-.609 1.405-.305.265-.719.437-1.21.504v.393a.42.42 0 01-.84 0v-.383a3.456 3.456 0 01-1.583-.592.512.512 0 01-.235-.437.498.498 0 01.5-.49.598.598 0 01.32.1c.33.222.665.363.998.43V9.91c-1.375-.252-1.674-1.085-1.674-1.758 0-1.022.645-1.72 1.674-1.862v-.373a.42.42 0 01.42-.42zm.42 4.544v1.715c.521-.111.827-.434.827-.894 0-.333-.107-.656-.827-.82zm-.84-2.77c-.434.108-.682.404-.682.838 0 .195 0 .568.682.77z" fill="#5CB615" fill-rule="nonzero"/></svg>
